src/assets/images/logo.svg

<svg width="76" height="34" viewBox="0 0 76 34" fill="none" xmlns="http://www.w3.org/2000/svg">
<path d="M20.1851 2.91358C20.1851 2.36129 20.6328 1.91357 21.1851 1.91357H33.3589C33.9112 1.91357 34.3589 2.36129 34.3589 2.91357V21.4657C34.3589 22.0179 33.9112 22.4657 33.3589 22.4657H21.1851C20.6328 22.4657 20.1851 22.0179 20.1851 21.4657V2.91358Z" fill="#AFAFAF"/>
<g filter="url(#filter0_dd_1646_11)">
<path d="M27.1263 24.0407C26.9557 24.676 27.4343 25.3001 28.0921 25.3001H34.4788C34.9311 25.3001 35.3272 24.9964 35.4445 24.5595L41.7023 1.25914C41.8729 0.62388 41.3943 -0.000244141 40.7366 -0.000244141H34.3499C33.8975 -0.000244141 33.5015 0.303469 33.3841 0.740376L27.1263 24.0407Z" fill="white"/>
<path d="M37.2267 24.0407C37.0561 24.676 37.5347 25.3001 38.1925 25.3001H44.5791C45.0315 25.3001 45.4276 24.9964 45.5449 24.5595L51.8027 1.25914C51.9733 0.62388 51.4947 -0.000244141 50.8369 -0.000244141H44.4503C43.9979 -0.000244141 43.6018 0.303469 43.4845 0.740376L37.2267 24.0407Z" fill="white"/>
<path d="M49.6273 24.3001C49.6273 24.8524 50.075 25.3001 50.6273 25.3001H71C71.5523 25.3001 72 24.8524 72 24.3001V20.3726C72 19.8203 71.5523 19.3726 71 19.3726H61.5401C60.6773 19.3726 60.2195 18.3533 60.7926 17.7083L71.7475 5.3801C71.9102 5.19707 72 4.96072 72 4.71586V0.999757C72 0.447472 71.5523 -0.000244141 71 -0.000244141H51.061C50.5087 -0.000244141 50.061 0.447471 50.061 0.999756V4.92726C50.061 5.47955 50.5087 5.92726 51.061 5.92726H60.0872C60.95 5.92726 61.4078 6.94657 60.8347 7.59151L49.8798 19.9197C49.7171 20.1028 49.6273 20.3391 49.6273 20.584V24.3001Z" fill="white"/>
</g>
<g filter="url(#filter1_d_1646_11)">
<path d="M4 24.3003C4 24.8526 4.44772 25.3003 5 25.3003H17.0477C23.0837 25.3003 26.6257 22.6619 26.6257 18.3247V18.2524C26.6257 15.8176 25.6444 14.237 23.978 13.1626C23.2061 12.6649 23.1299 11.2937 23.7932 10.6584C24.8439 9.65203 25.5053 8.28001 25.5053 6.43351V6.36123C25.5053 4.62635 24.8908 3.28904 23.8788 2.27703C22.397 0.795154 20.1561 0 16.9755 0H5C4.44771 0 4 0.447715 4 1V24.3003ZM11.8311 10.084C11.2788 10.084 10.8311 9.63627 10.8311 9.08399V6.63836C10.8311 6.08607 11.2788 5.63836 11.8311 5.63836H15.3851C17.4815 5.63836 18.5658 6.43351 18.5658 7.80696V7.87925C18.5658 9.36112 17.373 10.084 15.2406 10.084H11.8311ZM11.8311 19.662C11.2788 19.662 10.8311 19.2143 10.8311 18.662V15.9995C10.8311 15.4472 11.2788 14.9995 11.8311 14.9995H16.1803C18.5296 14.9995 19.6139 15.9031 19.6139 17.2765V17.3488C19.6139 18.8307 18.385 19.662 16.2526 19.662H11.8311Z" fill="#00E741"/>
</g>
<defs>
<filter id="filter0_dd_1646_11" x="23.0913" y="-0.000244141" width="52.9087" height="33.3003" filterUnits="userSpaceOnUse" color-interpolation-filters="sRGB">
<feFlood flood-opacity="0" result="BackgroundImageFix"/>
<feColorMatrix in="SourceAlpha" type="matrix" values="0 0 0 0 0 0 0 0 0 0 0 0 0 0 0 0 0 0 127 0" result="hardAlpha"/>
<feOffset dy="4"/>
<feGaussianBlur stdDeviation="2"/>
<feComposite in2="hardAlpha" operator="out"/>
<feColorMatrix type="matrix" values="0 0 0 0 0 0 0 0 0 0 0 0 0 0 0 0 0 0 0.25 0"/>
<feBlend mode="normal" in2="BackgroundImageFix" result="effect1_dropShadow_1646_11"/>
<feColorMatrix in="SourceAlpha" type="matrix" values="0 0 0 0 0 0 0 0 0 0 0 0 0 0 0 0 0 0 127 0" result="hardAlpha"/>
<feOffset dy="4"/>
<feGaussianBlur stdDeviation="2"/>
<feComposite in2="hardAlpha" operator="out"/>
<feColorMatrix type="matrix" values="0 0 0 0 0 0 0 0 0 0 0 0 0 0 0 0 0 0 0.25 0"/>
<feBlend mode="normal" in2="effect1_dropShadow_1646_11" result="effect2_dropShadow_1646_11"/>
<feBlend mode="normal" in="SourceGraphic" in2="effect2_dropShadow_1646_11" result="shape"/>
</filter>
<filter id="filter1_d_1646_11" x="0" y="0" width="30.6255" height="33.3003" filterUnits="userSpaceOnUse" color-interpolation-filters="sRGB">
<feFlood flood-opacity="0" result="BackgroundImageFix"/>
<feColorMatrix in="SourceAlpha" type="matrix" values="0 0 0 0 0 0 0 0 0 0 0 0 0 0 0 0 0 0 127 0" result="hardAlpha"/>
<feOffset dy="4"/>
<feGaussianBlur stdDeviation="2"/>
<feComposite in2="hardAlpha" operator="out"/>
<feColorMatrix type="matrix" values="0 0 0 0 0 0 0 0 0 0 0 0 0 0 0 0 0 0 0.25 0"/>
<feBlend mode="normal" in2="BackgroundImageFix" result="effect1_dropShadow_1646_11"/>
<feBlend mode="normal" in="SourceGraphic" in2="effect1_dropShadow_1646_11" result="shape"/>
</filter>
</defs>
</svg>

<svg id="Capa_1" data-name="Capa 1" xmlns="http://www.w3.org/2000/svg" viewBox="0 0 68 25.3"><defs><style>.cls-1{fill:#afafaf;}.cls-2{fill:#fff;}.cls-3{fill:#00e741;}</style></defs><path class="cls-1" d="M20.19,2.91a1,1,0,0,1,1-1H33.36a1,1,0,0,1,1,1V21.47a1,1,0,0,1-1,1H21.19a1,1,0,0,1-1-1Z" transform="translate(-4 0)"/><path class="cls-2" d="M27.13,24a1,1,0,0,0,1,1.26h6.39a1,1,0,0,0,1-.74L41.7,1.26a1,1,0,0,0-1-1.26H34.35a1,1,0,0,0-1,.74Z" transform="translate(-4 0)"/><path class="cls-2" d="M37.23,24a1,1,0,0,0,1,1.26h6.39a1,1,0,0,0,1-.74L51.8,1.26a1,1,0,0,0-1-1.26H44.45a1,1,0,0,0-1,.74Z" transform="translate(-4 0)"/><path class="cls-2" d="M49.63,24.3a1,1,0,0,0,1,1H71a1,1,0,0,0,1-1V20.37a1,1,0,0,0-1-1H61.54a1,1,0,0,1-.75-1.66l11-12.33A1,1,0,0,0,72,4.72V1a1,1,0,0,0-1-1H51.06a1,1,0,0,0-1,1V4.93a1,1,0,0,0,1,1h9a1,1,0,0,1,.74,1.66L49.88,19.92a1,1,0,0,0-.25.66Z" transform="translate(-4 0)"/><path class="cls-3" d="M4,24.3a1,1,0,0,0,1,1H17.05c6,0,9.58-2.64,9.58-7v-.07A5.62,5.62,0,0,0,24,13.16a1.73,1.73,0,0,1-.19-2.5,5.61,5.61,0,0,0,1.72-4.23V6.36a5.55,5.55,0,0,0-1.63-4.08C22.4.8,20.16,0,17,0H5A1,1,0,0,0,4,1Zm7.83-14.22a1,1,0,0,1-1-1V6.64a1,1,0,0,1,1-1h3.56c2.09,0,3.18.79,3.18,2.17v.07c0,1.48-1.2,2.2-3.33,2.2Zm0,9.58a1,1,0,0,1-1-1V16a1,1,0,0,1,1-1h4.35c2.35,0,3.43.9,3.43,2.28v.07c0,1.48-1.22,2.31-3.36,2.31Z" transform="translate(-4 0)"/></svg>
